<?xml version="1.0" encoding="UTF-8"?>
<map version="1.10" tiledversion="1.11.0" orientation="orthogonal" renderorder="right-down" width="20" height="16" tilewidth="64" tileheight="64" infinite="0" nextlayerid="3" nextobjectid="3">
 <tileset firstgid="1" name="sample-slopes" tilewidth="64" tileheight="64" tilecount="54" columns="9">
  <image source="full_custom.png" width="576" height="384"/>
  <tile id="0" type="floor">
   <properties>
    <property name="slope" type="int" value="0"/>
   </properties>
  </tile>
  <tile id="1" type="floor">
   <properties>
    <property name="slope" type="int" value="0"/>
   </properties>
  </tile>
  <tile id="2" type="floor">
   <properties>
    <property name="slope" type="int" value="0"/>
   </properties>
  </tile>
  <tile id="3" type="floor">
   <properties>
    <property name="slope" type="int" value="45"/>
   </properties>
  </tile>
  <tile id="4" type="floor">
   <properties>
    <property name="slope" type="int" value="-45"/>
   </properties>
  </tile>
  <tile id="18" type="floor">
   <properties>
    <property name="slope" type="int" value="0"/>
   </properties>
  </tile>
  <tile id="19" type="floor">
   <properties>
    <property name="slope" type="int" value="0"/>
   </properties>
  </tile>
  <tile id="20" type="floor">
   <properties>
    <property name="slope" type="int" value="0"/>
   </properties>
  </tile>
 </tileset>
 <layer id="1" name="main" width="20" height="16">
  <data encoding="csv">
0,0,0,0,0,0,0,0,0,0,0,0,0,0,0,0,0,0,0,0,
0,0,0,0,0,0,0,0,0,0,0,0,0,0,0,0,0,0,0,0,
0,0,0,0,0,0,0,0,0,0,0,0,0,0,0,0,0,0,0,0,
0,0,0,0,0,0,0,0,0,0,0,0,0,0,0,0,0,0,0,0,
0,0,0,0,0,0,0,0,0,0,0,0,0,0,0,0,0,0,0,0,
0,0,0,0,0,0,0,0,0,0,0,0,0,0,0,0,0,0,0,0,
0,0,0,0,0,0,0,0,0,0,0,0,0,0,0,0,0,0,0,0,
0,0,0,0,0,0,0,0,0,0,0,0,0,0,0,0,0,0,0,0,
0,0,0,0,0,0,0,0,0,0,0,0,0,0,0,0,0,0,0,0,
0,0,0,0,0,0,0,0,0,0,0,0,0,0,0,0,0,0,0,0,
0,0,0,0,0,0,0,0,0,0,0,0,0,0,0,0,0,0,0,0,
0,0,0,0,0,0,0,0,0,0,0,0,0,0,0,0,0,0,0,0,
0,0,0,0,0,0,0,0,0,0,0,0,0,0,4,2,2,2,2,2,
2,2,5,0,0,0,0,0,0,0,0,0,0,4,13,11,11,11,11,11,
11,11,14,5,0,0,0,0,0,0,0,0,4,13,11,11,11,11,11,11,
11,11,11,14,2,2,2,2,2,2,2,2,13,11,11,11,11,11,11,11
</data>
 </layer>
</map>
